images/3233876.svg

<?xml version="1.0" encoding="UTF-8"?>
<svg xmlns="http://www.w3.org/2000/svg" xmlns:xlink="http://www.w3.org/1999/xlink" width="300pt" height="300pt" viewBox="0 0 300 300" version="1.1">
<defs>
<g>
<symbol overflow="visible" id="glyph0-0">
<path style="stroke:none;" d="M 0.640625 2.296875 L 0.640625 -9.171875 L 7.140625 -9.171875 L 7.140625 2.296875 Z M 1.375 1.578125 L 6.421875 1.578125 L 6.421875 -8.4375 L 1.375 -8.4375 Z M 1.375 1.578125 "/>
</symbol>
<symbol overflow="visible" id="glyph0-1">
<path style="stroke:none;" d="M 1.28125 -9.484375 L 3 -9.484375 L 7.203125 -1.546875 L 7.203125 -9.484375 L 8.453125 -9.484375 L 8.453125 0 L 6.71875 0 L 2.515625 -7.921875 L 2.515625 0 L 1.28125 0 Z M 1.28125 -9.484375 "/>
</symbol>
<symbol overflow="visible" id="glyph0-2">
<path style="stroke:none;" d="M 5.125 -8.609375 C 4.1875 -8.609375 3.441406 -8.257812 2.890625 -7.5625 C 2.347656 -6.875 2.078125 -5.929688 2.078125 -4.734375 C 2.078125 -3.535156 2.347656 -2.585938 2.890625 -1.890625 C 3.441406 -1.203125 4.1875 -0.859375 5.125 -0.859375 C 6.050781 -0.859375 6.785156 -1.203125 7.328125 -1.890625 C 7.878906 -2.585938 8.15625 -3.535156 8.15625 -4.734375 C 8.15625 -5.929688 7.878906 -6.875 7.328125 -7.5625 C 6.785156 -8.257812 6.050781 -8.609375 5.125 -8.609375 Z M 5.125 -9.65625 C 6.445312 -9.65625 7.503906 -9.207031 8.296875 -8.3125 C 9.097656 -7.414062 9.5 -6.222656 9.5 -4.734375 C 9.5 -3.234375 9.097656 -2.035156 8.296875 -1.140625 C 7.503906 -0.253906 6.445312 0.1875 5.125 0.1875 C 3.789062 0.1875 2.722656 -0.253906 1.921875 -1.140625 C 1.128906 -2.035156 0.734375 -3.234375 0.734375 -4.734375 C 0.734375 -6.222656 1.128906 -7.414062 1.921875 -8.3125 C 2.722656 -9.207031 3.789062 -9.65625 5.125 -9.65625 Z M 5.125 -9.65625 "/>
</symbol>
</g>
</defs>
<g id="surface55145">
<rect x="0" y="0" width="300" height="300" style="fill:rgb(100%,100%,100%);fill-opacity:1;stroke:none;"/>
<path style="fill:none;stroke-width:1.2;stroke-linecap:butt;stroke-linejoin:miter;stroke:rgb(0%,0%,0%);stroke-opacity:1;stroke-miterlimit:10;" d="M 57.203125 180.070312 L 60.554688 146.363281 "/>
<path style="fill:none;stroke-width:1.2;stroke-linecap:butt;stroke-linejoin:miter;stroke:rgb(0%,0%,0%);stroke-opacity:1;stroke-miterlimit:10;" d="M 60.554688 146.363281 L 89.792969 129.257812 "/>
<path style="fill:none;stroke-width:1.2;stroke-linecap:butt;stroke-linejoin:miter;stroke:rgb(0%,0%,0%);stroke-opacity:1;stroke-miterlimit:10;" d="M 59.453125 137.769531 L 82.847656 124.085938 "/>
<path style="fill:none;stroke-width:1.2;stroke-linecap:butt;stroke-linejoin:miter;stroke:rgb(100%,0%,0%);stroke-opacity:1;stroke-miterlimit:10;" d="M 35.25 123.835938 L 47.902344 135.097656 "/>
<path style="fill:none;stroke-width:1.2;stroke-linecap:butt;stroke-linejoin:miter;stroke:rgb(0%,0%,0%);stroke-opacity:1;stroke-miterlimit:10;" d="M 47.902344 135.097656 L 60.554688 146.363281 "/>
<path style="fill:none;stroke-width:1.2;stroke-linecap:butt;stroke-linejoin:miter;stroke:rgb(0%,0%,0%);stroke-opacity:1;stroke-miterlimit:10;" d="M 89.792969 129.257812 L 82.5625 96.160156 "/>
<path style="fill:none;stroke-width:1.2;stroke-linecap:butt;stroke-linejoin:miter;stroke:rgb(0%,0%,0%);stroke-opacity:1;stroke-miterlimit:10;" d="M 89.792969 129.257812 L 120.820312 142.859375 "/>
<path style="fill:none;stroke-width:1.2;stroke-linecap:butt;stroke-linejoin:miter;stroke:rgb(0%,0%,0%);stroke-opacity:1;stroke-miterlimit:10;" d="M 82.5625 96.160156 L 65.707031 94.488281 "/>
<path style="fill:none;stroke-width:1.2;stroke-linecap:butt;stroke-linejoin:miter;stroke:rgb(0%,0%,100%);stroke-opacity:1;stroke-miterlimit:10;" d="M 65.707031 94.488281 L 48.851562 92.8125 "/>
<path style="fill:none;stroke-width:1.2;stroke-linecap:butt;stroke-linejoin:miter;stroke:rgb(0%,0%,0%);stroke-opacity:1;stroke-miterlimit:10;" d="M 78.402344 103.757812 L 64.921875 102.417969 "/>
<path style="fill:none;stroke-width:1.2;stroke-linecap:butt;stroke-linejoin:miter;stroke:rgb(0%,0%,100%);stroke-opacity:1;stroke-miterlimit:10;" d="M 64.921875 102.417969 L 51.4375 101.078125 "/>
<path style="fill:none;stroke-width:1.2;stroke-linecap:butt;stroke-linejoin:miter;stroke:rgb(0%,0%,0%);stroke-opacity:1;stroke-miterlimit:10;" d="M 82.5625 96.160156 L 105.089844 70.859375 "/>
<path style="fill:none;stroke-width:1.2;stroke-linecap:butt;stroke-linejoin:miter;stroke:rgb(0%,0%,100%);stroke-opacity:1;stroke-miterlimit:10;" d="M 48.851562 92.8125 L 42.050781 108.324219 "/>
<path style="fill:none;stroke-width:1.2;stroke-linecap:butt;stroke-linejoin:miter;stroke:rgb(100%,0%,0%);stroke-opacity:1;stroke-miterlimit:10;" d="M 42.050781 108.324219 L 35.25 123.835938 "/>
<path style=" stroke:none;fill-rule:nonzero;fill:rgb(100%,100%,100%);fill-opacity:1;" d="M 43.851562 84.8125 L 53.851562 84.8125 L 53.851562 100.8125 L 43.851562 100.8125 Z M 43.851562 84.8125 "/>
<g style="fill:rgb(0%,0%,100%);fill-opacity:1;">
  <use xlink:href="#glyph0-1" x="43.851562" y="97.188477"/>
</g>
<path style=" stroke:none;fill-rule:nonzero;fill:rgb(100%,100%,100%);fill-opacity:1;" d="M 30.25 115.835938 L 41.25 115.835938 L 41.25 131.835938 L 30.25 131.835938 Z M 30.25 115.835938 "/>
<g style="fill:rgb(100%,0%,0%);fill-opacity:1;">
  <use xlink:href="#glyph0-2" x="30.25" y="128.211914"/>
</g>
<path style="fill:none;stroke-width:1.2;stroke-linecap:butt;stroke-linejoin:miter;stroke:rgb(0%,0%,0%);stroke-opacity:1;stroke-miterlimit:10;" d="M 120.820312 142.859375 L 122.6875 159.695312 "/>
<path style="fill:none;stroke-width:1.2;stroke-linecap:butt;stroke-linejoin:miter;stroke:rgb(0%,0%,100%);stroke-opacity:1;stroke-miterlimit:10;" d="M 122.6875 159.695312 L 124.550781 176.53125 "/>
<path style="fill:none;stroke-width:1.2;stroke-linecap:butt;stroke-linejoin:miter;stroke:rgb(0%,0%,0%);stroke-opacity:1;stroke-miterlimit:10;" d="M 129.113281 145.347656 L 130.609375 158.816406 "/>
<path style="fill:none;stroke-width:1.2;stroke-linecap:butt;stroke-linejoin:miter;stroke:rgb(0%,0%,100%);stroke-opacity:1;stroke-miterlimit:10;" d="M 130.609375 158.816406 L 132.101562 172.285156 "/>
<path style="fill:none;stroke-width:1.2;stroke-linecap:butt;stroke-linejoin:miter;stroke:rgb(0%,0%,100%);stroke-opacity:1;stroke-miterlimit:10;" d="M 148.113281 122.792969 L 134.464844 132.828125 "/>
<path style="fill:none;stroke-width:1.2;stroke-linecap:butt;stroke-linejoin:miter;stroke:rgb(0%,0%,0%);stroke-opacity:1;stroke-miterlimit:10;" d="M 134.464844 132.828125 L 120.820312 142.859375 "/>
<path style="fill:none;stroke-width:1.2;stroke-linecap:butt;stroke-linejoin:miter;stroke:rgb(0%,0%,100%);stroke-opacity:1;stroke-miterlimit:10;" d="M 124.550781 176.53125 L 140.0625 183.332031 "/>
<path style="fill:none;stroke-width:1.2;stroke-linecap:butt;stroke-linejoin:miter;stroke:rgb(0%,0%,0%);stroke-opacity:1;stroke-miterlimit:10;" d="M 140.0625 183.332031 L 155.578125 190.132812 "/>
<path style=" stroke:none;fill-rule:nonzero;fill:rgb(100%,100%,100%);fill-opacity:1;" d="M 119.550781 168.53125 L 129.550781 168.53125 L 129.550781 184.53125 L 119.550781 184.53125 Z M 119.550781 168.53125 "/>
<g style="fill:rgb(0%,0%,100%);fill-opacity:1;">
  <use xlink:href="#glyph0-1" x="119.550781" y="180.907227"/>
</g>
<path style="fill:none;stroke-width:1.2;stroke-linecap:butt;stroke-linejoin:miter;stroke:rgb(0%,0%,0%);stroke-opacity:1;stroke-miterlimit:10;" d="M 155.578125 190.132812 L 159.308594 223.804688 "/>
<path style="fill:none;stroke-width:1.2;stroke-linecap:butt;stroke-linejoin:miter;stroke:rgb(0%,0%,0%);stroke-opacity:1;stroke-miterlimit:10;" d="M 163.871094 192.621094 L 166.859375 219.558594 "/>
<path style="fill:none;stroke-width:1.2;stroke-linecap:butt;stroke-linejoin:miter;stroke:rgb(0%,0%,0%);stroke-opacity:1;stroke-miterlimit:10;" d="M 182.871094 170.066406 L 155.578125 190.132812 "/>
<path style="fill:none;stroke-width:1.2;stroke-linecap:butt;stroke-linejoin:miter;stroke:rgb(0%,0%,0%);stroke-opacity:1;stroke-miterlimit:10;" d="M 159.308594 223.804688 L 190.332031 237.40625 "/>
<path style="fill:none;stroke-width:1.2;stroke-linecap:butt;stroke-linejoin:miter;stroke:rgb(0%,0%,0%);stroke-opacity:1;stroke-miterlimit:10;" d="M 190.332031 237.40625 L 217.628906 217.339844 "/>
<path style="fill:none;stroke-width:1.2;stroke-linecap:butt;stroke-linejoin:miter;stroke:rgb(0%,0%,0%);stroke-opacity:1;stroke-miterlimit:10;" d="M 188.339844 228.980469 L 210.175781 212.925781 "/>
<path style="fill:none;stroke-width:1.2;stroke-linecap:butt;stroke-linejoin:miter;stroke:rgb(0%,0%,0%);stroke-opacity:1;stroke-miterlimit:10;" d="M 217.628906 217.339844 L 213.894531 183.671875 "/>
<path style="fill:none;stroke-width:1.2;stroke-linecap:butt;stroke-linejoin:miter;stroke:rgb(0%,0%,0%);stroke-opacity:1;stroke-miterlimit:10;" d="M 213.894531 183.671875 L 182.871094 170.066406 "/>
<path style="fill:none;stroke-width:1.2;stroke-linecap:butt;stroke-linejoin:miter;stroke:rgb(0%,0%,0%);stroke-opacity:1;stroke-miterlimit:10;" d="M 207.59375 189.609375 L 182.773438 178.726562 "/>
<path style="fill:none;stroke-width:1.2;stroke-linecap:butt;stroke-linejoin:miter;stroke:rgb(0%,0%,0%);stroke-opacity:1;stroke-miterlimit:10;" d="M 182.871094 170.066406 L 179.136719 136.398438 "/>
<path style="fill:none;stroke-width:1.2;stroke-linecap:butt;stroke-linejoin:miter;stroke:rgb(0%,0%,0%);stroke-opacity:1;stroke-miterlimit:10;" d="M 179.136719 136.398438 L 163.625 129.59375 "/>
<path style="fill:none;stroke-width:1.2;stroke-linecap:butt;stroke-linejoin:miter;stroke:rgb(0%,0%,100%);stroke-opacity:1;stroke-miterlimit:10;" d="M 163.625 129.59375 L 148.113281 122.792969 "/>
<path style="fill:none;stroke-width:1.2;stroke-linecap:butt;stroke-linejoin:miter;stroke:rgb(0%,0%,0%);stroke-opacity:1;stroke-miterlimit:10;" d="M 172.835938 142.335938 L 160.425781 136.894531 "/>
<path style="fill:none;stroke-width:1.2;stroke-linecap:butt;stroke-linejoin:miter;stroke:rgb(0%,0%,100%);stroke-opacity:1;stroke-miterlimit:10;" d="M 160.425781 136.894531 L 148.015625 131.453125 "/>
<path style="fill:none;stroke-width:1.2;stroke-linecap:butt;stroke-linejoin:miter;stroke:rgb(0%,0%,0%);stroke-opacity:1;stroke-miterlimit:10;" d="M 179.136719 136.398438 L 192.785156 126.363281 "/>
<path style="fill:none;stroke-width:1.2;stroke-linecap:butt;stroke-linejoin:miter;stroke:rgb(0%,0%,100%);stroke-opacity:1;stroke-miterlimit:10;" d="M 192.785156 126.363281 L 206.429688 116.328125 "/>
<path style=" stroke:none;fill-rule:nonzero;fill:rgb(100%,100%,100%);fill-opacity:1;" d="M 143.113281 114.792969 L 153.113281 114.792969 L 153.113281 130.792969 L 143.113281 130.792969 Z M 143.113281 114.792969 "/>
<g style="fill:rgb(0%,0%,100%);fill-opacity:1;">
  <use xlink:href="#glyph0-1" x="143.113281" y="127.168945"/>
</g>
<path style="fill:none;stroke-width:1.2;stroke-linecap:butt;stroke-linejoin:miter;stroke:rgb(0%,0%,100%);stroke-opacity:1;stroke-miterlimit:10;" d="M 206.429688 116.328125 L 221.945312 123.132812 "/>
<path style="fill:none;stroke-width:1.2;stroke-linecap:butt;stroke-linejoin:miter;stroke:rgb(0%,0%,0%);stroke-opacity:1;stroke-miterlimit:10;" d="M 221.945312 123.132812 L 237.457031 129.933594 "/>
<path style="fill:none;stroke-width:1.2;stroke-linecap:butt;stroke-linejoin:miter;stroke:rgb(0%,0%,0%);stroke-opacity:1;stroke-miterlimit:10;" d="M 202.699219 82.660156 L 204.566406 99.496094 "/>
<path style="fill:none;stroke-width:1.2;stroke-linecap:butt;stroke-linejoin:miter;stroke:rgb(0%,0%,100%);stroke-opacity:1;stroke-miterlimit:10;" d="M 204.566406 99.496094 L 206.429688 116.328125 "/>
<path style=" stroke:none;fill-rule:nonzero;fill:rgb(100%,100%,100%);fill-opacity:1;" d="M 201.429688 108.328125 L 211.429688 108.328125 L 211.429688 124.328125 L 201.429688 124.328125 Z M 201.429688 108.328125 "/>
<g style="fill:rgb(0%,0%,100%);fill-opacity:1;">
  <use xlink:href="#glyph0-1" x="201.429688" y="120.704102"/>
</g>
<path style="fill:none;stroke-width:1.2;stroke-linecap:butt;stroke-linejoin:miter;stroke:rgb(0%,0%,0%);stroke-opacity:1;stroke-miterlimit:10;" d="M 237.457031 129.933594 L 264.75 109.867188 "/>
<path style="fill:none;stroke-width:1.2;stroke-linecap:butt;stroke-linejoin:miter;stroke:rgb(0%,0%,0%);stroke-opacity:1;stroke-miterlimit:10;" d="M 264.75 109.867188 L 262.882812 93.03125 "/>
<path style="fill:none;stroke-width:1.2;stroke-linecap:butt;stroke-linejoin:miter;stroke:rgb(100%,0%,0%);stroke-opacity:1;stroke-miterlimit:10;" d="M 262.882812 93.03125 L 261.019531 76.195312 "/>
<path style="fill:none;stroke-width:1.2;stroke-linecap:butt;stroke-linejoin:miter;stroke:rgb(100%,0%,0%);stroke-opacity:1;stroke-miterlimit:10;" d="M 261.019531 76.195312 L 245.503906 69.394531 "/>
<path style="fill:none;stroke-width:1.2;stroke-linecap:butt;stroke-linejoin:miter;stroke:rgb(0%,0%,0%);stroke-opacity:1;stroke-miterlimit:10;" d="M 245.503906 69.394531 L 229.992188 62.59375 "/>
<path style=" stroke:none;fill-rule:nonzero;fill:rgb(100%,100%,100%);fill-opacity:1;" d="M 256.019531 68.195312 L 267.019531 68.195312 L 267.019531 84.195312 L 256.019531 84.195312 Z M 256.019531 68.195312 "/>
<g style="fill:rgb(100%,0%,0%);fill-opacity:1;">
  <use xlink:href="#glyph0-2" x="256.019531" y="80.571289"/>
</g>
<path style="fill:none;stroke-width:1.2;stroke-linecap:butt;stroke-linejoin:miter;stroke:rgb(0%,0%,0%);stroke-opacity:1;stroke-miterlimit:10;" d="M 229.992188 62.59375 L 202.699219 82.660156 "/>
</g>
</svg>

<svg xmlns="http://www.w3.org/2000/svg" xmlns:xlink="http://www.w3.org/1999/xlink" width="300pt" height="300pt" viewBox="0 0 300 300"><defs><symbol overflow="visible"><path d="M.64 2.297v-11.47h6.5v11.47zm.735-.72h5.047V-8.436H1.375zm0 0"/></symbol><symbol overflow="visible" id="a"><path d="M1.28-9.484H3l4.203 7.937v-7.937h1.25V0H6.72L2.515-7.922V0H1.28zm0 0"/></symbol><symbol overflow="visible" id="b"><path d="M5.125-8.61c-.938 0-1.684.352-2.234 1.047-.542.688-.812 1.633-.812 2.83 0 1.198.27 2.147.813 2.842.55.687 1.297 1.03 2.235 1.03.926 0 1.66-.343 2.203-1.03.55-.696.828-1.645.828-2.844 0-1.196-.277-2.14-.828-2.829-.543-.695-1.277-1.046-2.203-1.046zm0-1.046c1.32 0 2.38.45 3.172 1.344.8.898 1.203 2.09 1.203 3.578 0 1.5-.402 2.7-1.203 3.593C7.504-.255 6.445.186 5.125.186c-1.336 0-2.402-.44-3.203-1.328C1.13-2.036.734-3.235.734-4.735c0-1.49.395-2.68 1.188-3.579.8-.894 1.867-1.343 3.203-1.343zm0 0"/></symbol></defs><g><path fill="#fff" d="M0 0h300v300H0z"/><path d="M57.203 180.07l3.352-33.707M60.555 146.363l29.238-17.105M59.453 137.77l23.395-13.684" stroke-width="1.2" stroke="#000" stroke-miterlimit="10" fill="none"/><path d="M35.25 123.836l12.652 11.262" stroke-width="1.2" stroke="#f00" stroke-miterlimit="10" fill="none"/><path d="M47.902 135.098l12.653 11.265M89.793 129.258l-7.23-33.098M89.793 129.258l31.027 13.6M82.563 96.16l-16.856-1.672" stroke-width="1.2" stroke="#000" stroke-miterlimit="10" fill="none"/><path d="M65.707 94.488l-16.855-1.675" stroke-width="1.2" stroke="#00f" stroke-miterlimit="10" fill="none"/><path d="M78.402 103.758l-13.48-1.34" stroke-width="1.2" stroke="#000" stroke-miterlimit="10" fill="none"/><path d="M64.922 102.418l-13.484-1.34" stroke-width="1.2" stroke="#00f" stroke-miterlimit="10" fill="none"/><path d="M82.563 96.16l22.527-25.3" stroke-width="1.2" stroke="#000" stroke-miterlimit="10" fill="none"/><path d="M48.852 92.813l-6.8 15.51" stroke-width="1.2" stroke="#00f" stroke-miterlimit="10" fill="none"/><path d="M42.05 108.324l-6.8 15.512" stroke-width="1.2" stroke="#f00" stroke-miterlimit="10" fill="none"/><path d="M43.852 84.813h10v16h-10zm0 0" fill="#fff"/><use xlink:href="#a" x="43.852" y="97.188" fill="#00f"/><path d="M30.25 115.836h11v16h-11zm0 0" fill="#fff"/><use xlink:href="#b" x="30.25" y="128.212" fill="#f00"/><path d="M120.82 142.86l1.868 16.835" stroke-width="1.2" stroke="#000" stroke-miterlimit="10" fill="none"/><path d="M122.688 159.695l1.863 16.836" stroke-width="1.2" stroke="#00f" stroke-miterlimit="10" fill="none"/><path d="M129.113 145.348l1.496 13.468" stroke-width="1.2" stroke="#000" stroke-miterlimit="10" fill="none"/><path d="M130.61 158.816l1.492 13.47M148.113 122.793l-13.648 10.035" stroke-width="1.2" stroke="#00f" stroke-miterlimit="10" fill="none"/><path d="M134.465 132.828l-13.645 10.03" stroke-width="1.2" stroke="#000" stroke-miterlimit="10" fill="none"/><path d="M124.55 176.53l15.513 6.802" stroke-width="1.2" stroke="#00f" stroke-miterlimit="10" fill="none"/><path d="M140.063 183.332l15.515 6.8" stroke-width="1.2" stroke="#000" stroke-miterlimit="10" fill="none"/><path d="M119.55 168.53h10v16h-10zm0 0" fill="#fff"/><use xlink:href="#a" x="119.551" y="180.907" fill="#00f"/><path d="M155.578 190.133l3.73 33.672M163.87 192.62l2.99 26.94M182.87 170.066l-27.292 20.067M159.31 223.805l31.022 13.6M190.332 237.406l27.297-20.066M188.34 228.98l21.836-16.054M217.63 217.34l-3.735-33.668M213.895 183.672l-31.024-13.606M207.594 189.61l-24.82-10.883M182.87 170.066l-3.733-33.668M179.137 136.398l-15.512-6.804" stroke-width="1.2" stroke="#000" stroke-miterlimit="10" fill="none"/><path d="M163.625 129.594l-15.512-6.8" stroke-width="1.2" stroke="#00f" stroke-miterlimit="10" fill="none"/><path d="M172.836 142.336l-12.41-5.44" stroke-width="1.2" stroke="#000" stroke-miterlimit="10" fill="none"/><path d="M160.426 136.895l-12.41-5.442" stroke-width="1.2" stroke="#00f" stroke-miterlimit="10" fill="none"/><path d="M179.137 136.398l13.648-10.035" stroke-width="1.2" stroke="#000" stroke-miterlimit="10" fill="none"/><path d="M192.785 126.363l13.645-10.035" stroke-width="1.2" stroke="#00f" stroke-miterlimit="10" fill="none"/><path d="M143.113 114.793h10v16h-10zm0 0" fill="#fff"/><use xlink:href="#a" x="143.113" y="127.169" fill="#00f"/><path d="M206.43 116.328l15.515 6.805" stroke-width="1.2" stroke="#00f" stroke-miterlimit="10" fill="none"/><path d="M221.945 123.133l15.512 6.8M202.7 82.66l1.866 16.836" stroke-width="1.2" stroke="#000" stroke-miterlimit="10" fill="none"/><path d="M204.566 99.496l1.864 16.832" stroke-width="1.2" stroke="#00f" stroke-miterlimit="10" fill="none"/><path d="M201.43 108.328h10v16h-10zm0 0" fill="#fff"/><use xlink:href="#a" x="201.43" y="120.704" fill="#00f"/><path d="M237.457 129.934l27.293-20.067M264.75 109.867l-1.867-16.836" stroke-width="1.2" stroke="#000" stroke-miterlimit="10" fill="none"/><path d="M262.883 93.03l-1.863-16.835M261.02 76.195l-15.516-6.8" stroke-width="1.2" stroke="#f00" stroke-miterlimit="10" fill="none"/><path d="M245.504 69.395l-15.512-6.8" stroke-width="1.2" stroke="#000" stroke-miterlimit="10" fill="none"/><path d="M256.02 68.195h11v16h-11zm0 0" fill="#fff"/><use xlink:href="#b" x="256.02" y="80.571" fill="#f00"/><path d="M229.992 62.594L202.7 82.66" stroke-width="1.2" stroke="#000" stroke-miterlimit="10" fill="none"/></g></svg>
